X:15
T:Heilini Soitteli (My sweetheart played)
M:2/4
L:1/16
Q:1/4=80
S:arr. Eira Mattson (Washington DC Finlandia Society) ~1976
R:jenkka
K:Cm
|: "Cm" e2cc ccGG | e2cc c2GG | "Fm" A2FF F2A2 | "Cm" G4 "G7" G4 :| !
|: "Fm" A2FF F2AA | "Cm" G2G2 c2"G7"d2 |[1 "Cdim" edce "G7" d2=B2 |
"Cm" c4c4 :|[2 "D7" edc=B "G7" d2B2 | "Cm" c4 c4 ||
